X:1
T:Young Allan
M:6/8
L:1/8
K:C
 C|D-D D DEG| AAA D2 D|G-G G E2 D| C3 C2 E| D2 D DEF| A2 AG-A c| A2 A GEC|\
 D3- D2||
